X: 20693
M: 3/4
L: 1/4
K: G
(GF)E | (DF)G | (AB)(c/A/) | (^AB)B |\
(ed)^c | (dG)A | (Be)^d | e2=d |\
g2B | e2A | (Bc)A | B2d |\
(gf)e | (dg)B | (Ac)F | G2 |]


